;START_OF_HEADER
;HEADER_VERSION:0.1
;FLAVOR:Griffin
;GENERATOR.NAME:Cura_SteamEngine
;GENERATOR.VERSION:5.10.0
;GENERATOR.BUILD_DATE:2025-03-21
;TARGET_MACHINE.NAME:Ultimaker S5
;EXTRUDER_TRAIN.0.INITIAL_TEMPERATURE:205
;EXTRUDER_TRAIN.0.MATERIAL.VOLUME_USED:3460
;EXTRUDER_TRAIN.0.MATERIAL.GUID:44a029e6-e31b-4c9e-a12f-9282e29a92ff
;EXTRUDER_TRAIN.0.NOZZLE.DIAMETER:0.4
;EXTRUDER_TRAIN.0.NOZZLE.NAME:AA 0.4
;BUILD_PLATE.INITIAL_TEMPERATURE:60
;BUILD_VOLUME.TEMPERATURE:28
;PRINT.TIME:989
;PRINT.GROUPS:1
;PRINT.SIZE.MIN.X:147.93
;PRINT.SIZE.MIN.Y:102.93
;PRINT.SIZE.MIN.Z:0.2
;PRINT.SIZE.MAX.X:330
;PRINT.SIZE.MAX.Y:237
;PRINT.SIZE.MAX.Z:20.001
;SLICE_UUID:31acb8ba-ce47-43a1-8c39-bf8373d6515f
;END_OF_HEADER
;Generated with Cura_SteamEngine 5.10.0
T0

M82 ;absolute extrusion mode
G92 E0
M190 S60
M104 S205
M109 S205
G280 S1
G0 Z20.001
G1 F2700 E-6.5
;LAYER_COUNT:100
G0 F9000 X330 Y237
;LAYER:0
M106 S255
M204 S1500
M205 X30 Y30
G1 F600 Z2.2
G0 F9000 X181.365 Y133.419 Z2.2
;TYPE:SKIRT
G1 F600 Z0.2
G1 F2700 E0
G1 F1800 X178.804 Y136.148 E0.04693
G1 X175.722 Y137.07 E0.08727
G1 X154.109 Y137.07 E0.35831
G1 X151.948 Y136.476 E0.38641
G1 X149.823 Y134.847 E0.41999
G1 X148.442 Y132.732 E0.45167
G1 X147.93 Y130.54 E0.4799
G1 X147.93 Y108.744 E0.75323
G1 X148.779 Y106.517 E0.78311
G1 X150.291 Y104.742 E0.81235
G1 X152.272 Y103.44 E0.84208
G1 X154.456 Y102.93 E0.87021
G1 X176.256 Y102.93 E1.14359
G1 X178.483 Y103.779 E1.17347
G1 X180.258 Y105.291 E1.20272
G1 X181.56 Y107.272 E1.23244
G1 X182.07 Y109.456 E1.26057
G1 X182.07 Y130.962 E1.53026
G1 X181.365 Y133.419 E1.56232
G0 F9000 X181.008 Y133.214
G1 F1800 X178.585 Y135.797 E1.60673
G1 X175.664 Y136.67 E1.64496
G1 X154.164 Y136.67 E1.91458
G1 X152.127 Y136.11 E1.94107
G1 X150.122 Y134.573 E1.97275
G1 X148.816 Y132.573 E2.00271
G1 X148.33 Y130.492 E2.02951
G1 X148.33 Y108.819 E2.30129
G1 X149.13 Y106.721 E2.32945
G1 X150.557 Y105.046 E2.35704
G1 X152.431 Y103.814 E2.38517
G1 X154.504 Y103.33 E2.41186
G1 X176.181 Y103.33 E2.6837
G1 X178.279 Y104.13 E2.71186
G1 X179.954 Y105.557 E2.73945
G1 X181.186 Y107.431 E2.76758
G1 X181.67 Y109.504 E2.79427
G1 X181.67 Y130.908 E3.06269
G1 X181.008 Y133.214 E3.09277
G0 F9000 X180.651 Y133.009
G1 F1800 X178.367 Y135.446 E3.13466
G1 X175.607 Y136.27 E3.17078
G1 X154.219 Y136.27 E3.43899
G1 X152.306 Y135.744 E3.46387
G1 X150.421 Y134.299 E3.49366
G1 X149.19 Y132.414 E3.52189
G1 X148.73 Y130.444 E3.54726
G1 X148.73 Y108.894 E3.8175
G1 X149.48 Y106.927 E3.8439
G1 X150.825 Y105.348 E3.86992
G1 X152.59 Y104.188 E3.8964
G1 X154.552 Y103.73 E3.92167
G1 X176.106 Y103.73 E4.19196
G1 X178.073 Y104.48 E4.21836
G1 X179.652 Y105.825 E4.24437
G1 X180.812 Y107.59 E4.27086
G1 X181.27 Y109.552 E4.29612
G1 X181.27 Y130.854 E4.56326
G1 X180.651 Y133.009 E4.59138
G0 F9000 X180.293 Y132.806
G1 F1800 X178.15 Y135.095 E4.6307
G1 X175.55 Y135.87 E4.66472
G1 X154.274 Y135.87 E4.93153
G1 X152.485 Y135.378 E4.9548
G1 X150.72 Y134.025 E4.98269
G1 X149.564 Y132.255 E5.0092
G1 X149.13 Y130.396 E5.03314
G1 X149.13 Y108.969 E5.30184
G1 X149.831 Y107.131 E5.32651
G1 X151.091 Y105.652 E5.35087
G1 X152.749 Y104.562 E5.37576
G1 X154.6 Y104.13 E5.39959
G1 X176.031 Y104.13 E5.66834
G1 X177.869 Y104.831 E5.69301
G1 X179.348 Y106.091 E5.71738
G1 X180.438 Y107.749 E5.74226
G1 X180.87 Y109.6 E5.7661
G1 X180.87 Y130.799 E6.03194
G1 X180.293 Y132.806 E6.05813
G0 F9000 X179.936 Y132.603
G1 F1800 X177.933 Y134.743 E6.09489
G1 X175.493 Y135.47 E6.12681
G1 X154.329 Y135.47 E6.39222
G1 X152.664 Y135.012 E6.41387
G1 X151.019 Y133.751 E6.43987
G1 X149.937 Y132.093 E6.46469
G1 X149.53 Y130.352 E6.48712
G1 X149.53 Y109.044 E6.75433
G1 X150.181 Y107.337 E6.77724
G1 X151.359 Y105.954 E6.80002
G1 X152.908 Y104.936 E6.82326
G1 X154.648 Y104.53 E6.84567
G1 X175.956 Y104.53 E7.11288
G1 X177.663 Y105.181 E7.13579
G1 X179.046 Y106.359 E7.15857
G1 X180.064 Y107.908 E7.18182
G1 X180.47 Y109.648 E7.20422
G1 X180.47 Y130.745 E7.46879
G1 X179.936 Y132.603 E7.49303
G0 F9000 X179.579 Y132.4
G1 F1800 X177.716 Y134.391 E7.52722
G1 X175.436 Y135.07 E7.55706
G1 X154.384 Y135.07 E7.82106
G1 X152.843 Y134.646 E7.8411
G1 X151.318 Y133.477 E7.8652
G1 X150.311 Y131.934 E7.8883
G1 X149.93 Y130.304 E7.90929
G1 X149.93 Y109.119 E8.17496
G1 X150.532 Y107.541 E8.19614
G1 X151.625 Y106.258 E8.21728
G1 X153.067 Y105.31 E8.23892
G1 X154.696 Y104.93 E8.25989
G1 X175.881 Y104.93 E8.52556
G1 X177.459 Y105.532 E8.54674
G1 X178.742 Y106.625 E8.56788
G1 X179.69 Y108.067 E8.58952
G1 X180.07 Y109.696 E8.6105
G1 X180.07 Y130.691 E8.87378
G1 X179.579 Y132.4 E8.89608
G0 F9000 X179.222 Y132.197
G1 F1800 X177.499 Y134.039 E8.92771
G1 X175.379 Y134.67 E8.95545
G1 X154.439 Y134.67 E9.21804
G1 X153.022 Y134.28 E9.23647
G1 X151.617 Y133.203 E9.25867
G1 X150.685 Y131.775 E9.28006
G1 X150.33 Y130.256 E9.29962
G1 X150.33 Y109.194 E9.56375
G1 X150.882 Y107.747 E9.58317
G1 X151.893 Y106.56 E9.60272
G1 X153.226 Y105.684 E9.62272
G1 X154.744 Y105.33 E9.64227
G1 X175.806 Y105.33 E9.90639
G1 X177.253 Y105.882 E9.92582
G1 X178.44 Y106.893 E9.94537
G1 X179.316 Y108.226 E9.96537
G1 X179.67 Y109.744 E9.98492
G1 X179.67 Y130.637 E10.24692
G1 X179.222 Y132.197 E10.26728
G0 F9000 X178.865 Y131.994
G1 F1800 X177.282 Y133.687 E10.29634
G1 X175.322 Y134.27 E10.32199
G1 X154.494 Y134.27 E10.58318
G1 X153.201 Y133.914 E10.6
G1 X151.916 Y132.929 E10.6203
G1 X151.059 Y131.616 E10.63996
G1 X150.73 Y130.208 E10.6581
G1 X150.73 Y109.269 E10.92068
G1 X151.233 Y107.951 E10.93837
G1 X152.159 Y106.864 E10.95628
G1 X153.385 Y106.058 E10.97468
G1 X154.792 Y105.73 E10.99279
G1 X175.731 Y105.73 E11.25538
G1 X177.049 Y106.233 E11.27307
G1 X178.136 Y107.159 E11.29097
G1 X178.942 Y108.385 E11.30937
G1 X179.27 Y109.792 E11.32749
G1 X179.27 Y130.583 E11.58822
G1 X178.865 Y131.994 E11.60663
G0 F9000 X178.508 Y131.791
G1 F1800 X177.065 Y133.335 E11.63313
G1 X175.265 Y133.87 E11.65668
G1 X154.549 Y133.87 E11.91646
G1 X153.38 Y133.548 E11.93167
G1 X152.215 Y132.655 E11.95008
G1 X151.433 Y131.457 E11.96802
G1 X151.13 Y130.16 E11.98472
G1 X151.13 Y109.344 E12.24576
G1 X151.583 Y108.157 E12.26169
G1 X152.427 Y107.166 E12.27802
G1 X153.544 Y106.432 E12.29478
G1 X154.84 Y106.13 E12.31147
G1 X175.656 Y106.13 E12.57251
G1 X176.843 Y106.583 E12.58844
G1 X177.834 Y107.427 E12.60476
G1 X178.568 Y108.544 E12.62152
G1 X178.87 Y109.84 E12.63821
G1 X178.87 Y130.529 E12.89766
G1 X178.508 Y131.791 E12.91412
G0 F9000 X178.151 Y131.586
G1 F1800 X176.848 Y132.983 E12.93808
G1 X175.208 Y133.47 E12.95953
G1 X154.604 Y133.47 E13.21792
G1 X153.559 Y133.182 E13.23151
G1 X152.514 Y132.381 E13.24802
G1 X151.807 Y131.298 E13.26424
G1 X151.53 Y130.112 E13.27951
G1 X151.53 Y109.419 E13.53901
G1 X151.933 Y108.363 E13.55319
G1 X152.695 Y107.468 E13.56793
G1 X153.703 Y106.806 E13.58305
G1 X154.888 Y106.53 E13.59831
G1 X175.581 Y106.53 E13.8578
G1 X176.637 Y106.933 E13.87198
G1 X177.532 Y107.695 E13.88672
G1 X178.194 Y108.703 E13.90184
G1 X178.47 Y109.888 E13.9171
G1 X178.47 Y130.475 E14.17527
G1 X178.151 Y131.586 E14.18976
G0 F9000 X177.793 Y131.383
G1 F1800 X176.631 Y132.631 E14.21115
G1 X175.151 Y133.07 E14.23051
G1 X154.659 Y133.07 E14.48748
G1 X153.738 Y132.816 E14.49947
G1 X152.813 Y132.107 E14.51408
G1 X152.181 Y131.139 E14.52858
G1 X151.93 Y130.064 E14.54242
G1 X151.93 Y109.494 E14.80038
G1 X152.283 Y108.569 E14.81279
G1 X152.964 Y107.769 E14.82597
G1 X153.86 Y107.181 E14.83941
G1 X154.936 Y106.93 E14.85326
G1 X175.506 Y106.93 E15.11122
G1 X176.431 Y107.283 E15.12363
G1 X177.231 Y107.964 E15.13681
G1 X177.819 Y108.86 E15.15025
G1 X178.07 Y109.936 E15.1641
G1 X178.07 Y130.417 E15.42094
G1 X177.793 Y131.383 E15.43355
G0 F9000 X177.434 Y131.182
G1 F1800 X176.413 Y132.28 E15.45235
G1 X175.092 Y132.67 E15.46962
G1 X154.715 Y132.67 E15.72516
G1 X153.919 Y132.45 E15.73551
G1 X153.111 Y131.831 E15.74828
G1 X152.555 Y130.98 E15.76102
G1 X152.33 Y130.016 E15.77344
G1 X152.33 Y109.569 E16.02985
G1 X152.633 Y108.775 E16.04051
G1 X153.231 Y108.072 E16.05208
G1 X154.02 Y107.555 E16.06391
G1 X154.984 Y107.33 E16.07633
G1 X175.431 Y107.33 E16.33274
G1 X176.225 Y107.633 E16.3434
G1 X176.928 Y108.231 E16.35497
G1 X177.445 Y109.02 E16.3668
G1 X177.67 Y109.984 E16.37921
G1 X177.67 Y130.359 E16.63472
G1 X177.434 Y131.182 E16.64546
G0 F9000 X177.075 Y130.981
G1 F1800 X176.195 Y131.929 E16.66168
G1 X175.033 Y132.27 E16.67687
G1 X154.715 Y132.27 E16.93166
G1 X154.162 Y132.132 E16.93881
G1 X153.409 Y131.555 E16.95071
G1 X152.929 Y130.821 E16.9617
G1 X152.73 Y129.968 E16.97269
G1 X152.73 Y109.644 E17.22756
G1 X152.983 Y108.981 E17.23646
G1 X153.498 Y108.375 E17.24643
G1 X154.179 Y107.929 E17.25664
G1 X155.032 Y107.73 E17.26762
G1 X175.356 Y107.73 E17.52249
G1 X176.019 Y107.983 E17.53139
G1 X176.625 Y108.498 E17.54137
G1 X177.071 Y109.179 E17.55158
G1 X177.27 Y110.032 E17.56256
G1 X177.27 Y130.301 E17.81674
G1 X177.075 Y130.981 E17.82561
G0 F9000 X176.717 Y130.779
G1 F1800 X175.977 Y131.578 E17.83927
G1 X174.976 Y131.87 E17.85234
G1 X154.715 Y131.87 E18.10642
G1 X154.34 Y131.764 E18.11131
G1 X153.707 Y131.279 E18.12131
G1 X153.303 Y130.662 E18.13056
G1 X153.13 Y129.92 E18.14011
G1 X153.13 Y109.644 E18.39438
G1 X153.294 Y109.233 E18.39993
G1 X153.717 Y108.71 E18.40837
G1 X154.338 Y108.303 E18.41768
G1 X155.08 Y108.13 E18.42723
G1 X175.356 Y108.13 E18.6815
G1 X175.767 Y108.294 E18.68705
G1 X176.29 Y108.717 E18.69549
G1 X176.697 Y109.338 E18.7048
G1 X176.87 Y110.08 E18.71435
G1 X176.87 Y130.301 E18.96793
G1 X176.717 Y130.779 E18.97423
G0 F9000 X176.423 Y130.508
G1 F1800 X175.759 Y131.227 E18.9865
G1 X174.92 Y131.47 E18.99745
G1 X154.715 Y131.47 E19.25083
G1 X154.47 Y131.386 E19.25408
G1 X154.033 Y131.048 E19.26101
G1 X153.691 Y130.565 E19.26843
G1 X153.53 Y129.92 E19.27676
G1 X153.53 Y109.719 E19.53009
G1 X153.612 Y109.476 E19.53331
G1 X153.949 Y109.036 E19.54026
G1 X154.435 Y108.691 E19.54773
G1 X155.08 Y108.53 E19.55607
G1 X175.281 Y108.53 E19.8094
G1 X175.524 Y108.612 E19.81261
G1 X175.964 Y108.949 E19.81956
G1 X176.309 Y109.435 E19.82704
G1 X176.47 Y110.08 E19.83538
G1 X176.47 Y130.301 E20.08895
G1 X176.423 Y130.508 E20.09162
G0 F9000 X176.07 Y130.301
G1 F1800 X175.539 Y130.876 E20.10143
G1 X174.92 Y131.07 E20.10957
G1 X154.715 Y131.07 E20.36294
G1 X154.278 Y130.732 E20.36987
G1 X154.077 Y130.46 E20.37411
G1 X153.93 Y129.92 E20.38113
G1 X153.93 Y109.719 E20.63446
G1 X154.267 Y109.279 E20.64141
G1 X154.54 Y109.077 E20.64567
G1 X155.08 Y108.93 E20.65269
G1 X175.281 Y108.93 E20.90601
G1 X175.721 Y109.267 E20.91297
G1 X175.923 Y109.54 E20.91722
G1 X176.07 Y110.08 E20.92424
G1 X176.07 Y130.301 E21.17782
G0 F9000 X175.27 Y130.037
G1 F1800 X175.121 Y130.206 E21.18065
G1 X174.92 Y130.27 E21.18329
G1 X154.963 Y130.27 E21.43356
G1 X154.794 Y130.121 E21.43639
G1 X154.73 Y129.92 E21.43903
G1 X154.73 Y109.963 E21.6893
G1 X154.879 Y109.794 E21.69212
G1 X155.08 Y109.73 E21.69477
G1 X175.037 Y109.73 E21.94504
G1 X175.206 Y109.879 E21.94786
G1 X175.27 Y110.08 E21.95051
G1 X175.27 Y130.037 E22.20078
G0 F9000 X175.67 Y130.17
G1 F1800 X175.277 Y130.574 E22.20784
G1 X174.92 Y130.67 E22.21248
G1 X154.838 Y130.67 E22.46432
G1 X154.529 Y130.421 E22.46929
G1 X154.413 Y130.242 E22.47197
G1 X154.33 Y129.92 E22.47614
G1 X154.33 Y109.84 E22.72795
G1 X154.579 Y109.529 E22.73294
G1 X154.758 Y109.413 E22.73562
G1 X155.08 Y109.33 E22.73979
G1 X175.16 Y109.33 E22.9916
G1 X175.471 Y109.579 E22.9966
G1 X175.587 Y109.758 E22.99927
G1 X175.67 Y110.08 E23.00344
G1 X175.67 Y130.17 E23.25538
;MESH:Terrific Lappi-Luulia.stl
G0 F9000 X174.72 Y129.72
;TYPE:WALL-OUTER
G1 F1800 X174.72 Y110.28 E23.52354
G1 X155.28 Y110.28 E23.7917
G1 X155.28 Y129.72 E24.05987
G1 X174.72 Y129.72 E24.32803
G0 F9000 X174.72 Y128.92
G0 X174.32 Y129.32
;TYPE:WALL-INNER
G1 F1800 X174.32 Y110.68 E24.5723
G1 X155.68 Y110.68 E24.81657
G1 X155.68 Y129.32 E25.06084
G1 X174.32 Y129.32 E25.30512
G0 F9000 X174 Y129
;TYPE:SKIN
G1 F1800 X174 Y111 E25.53028
G1 X156 Y111 E25.75544
G1 X156 Y129 E25.9806
G1 X174 Y129 E26.20576
G1 F2700 E19.70576
G0 F9000 X177.96 Y129
G0 X177.96 Y111.2
G0 X173.425 Y111.2
G1 F2700 E26.20576
G1 F1800 X173.8 Y111.575 E26.2124
G0 F9000 X173.8 Y112.141
G1 F1800 X172.859 Y111.2 E26.22905
G0 F9000 X172.294 Y111.2
G1 F1800 X173.8 Y112.706 E26.25569
G0 F9000 X173.8 Y113.272
G1 F1800 X171.728 Y111.2 E26.29234
G0 F9000 X171.162 Y111.2
G1 F1800 X173.8 Y113.838 E26.33901
G0 F9000 X173.8 Y114.404
G1 F1800 X170.597 Y111.2 E26.39568
G0 F9000 X170.031 Y111.2
G1 F1800 X173.8 Y114.969 E26.46236
G0 F9000 X173.8 Y115.535
G1 F1800 X169.465 Y111.2 E26.53904
G0 F9000 X168.9 Y111.2
G1 F1800 X173.8 Y116.101 E26.62574
G0 F9000 X173.8 Y116.666
G1 F1800 X168.334 Y111.2 E26.72243
G0 F9000 X167.768 Y111.2
G1 F1800 X173.8 Y117.232 E26.82914
G0 F9000 X173.8 Y117.798
G1 F1800 X167.202 Y111.2 E26.94586
G0 F9000 X166.637 Y111.2
G1 F1800 X173.8 Y118.363 E27.07258
G0 F9000 X173.8 Y118.929
G1 F1800 X166.071 Y111.2 E27.20931
G0 F9000 X165.505 Y111.2
G1 F1800 X173.8 Y119.495 E27.35605
G0 F9000 X173.8 Y120.06
G1 F1800 X164.94 Y111.2 E27.51279
G0 F9000 X164.374 Y111.2
G1 F1800 X173.8 Y120.626 E27.67954
G0 F9000 X173.8 Y121.192
G1 F1800 X163.808 Y111.2 E27.8563
G0 F9000 X163.243 Y111.2
G1 F1800 X173.8 Y121.757 E28.04306
G0 F9000 X173.8 Y122.323
G1 F1800 X162.677 Y111.2 E28.23983
G0 F9000 X162.111 Y111.2
G1 F1800 X173.8 Y122.889 E28.44661
G0 F9000 X173.8 Y123.454
G1 F1800 X161.546 Y111.2 E28.66339
G0 F9000 X160.98 Y111.2
G1 F1800 X173.8 Y124.02 E28.89018
G0 F9000 X173.8 Y124.586
G1 F1800 X160.414 Y111.2 E29.12698
G0 F9000 X159.849 Y111.2
G1 F1800 X173.8 Y125.152 E29.37379
G0 F9000 X173.8 Y125.717
G1 F1800 X159.283 Y111.2 E29.6306
G0 F9000 X158.717 Y111.2
G1 F1800 X173.8 Y126.283 E29.89743
G0 F9000 X173.8 Y126.849
G1 F1800 X158.152 Y111.2 E30.17426
G0 F9000 X157.586 Y111.2
G1 F1800 X173.8 Y127.414 E30.46109
G0 F9000 X173.8 Y127.98
G1 F1800 X157.02 Y111.2 E30.75794
G0 F9000 X156.454 Y111.2
G1 F1800 X173.8 Y128.546 E31.06479
G0 F9000 X173.489 Y128.8
G1 F1800 X156.2 Y111.511 E31.37064
G0 F9000 X156.2 Y112.076
G1 F1800 X172.923 Y128.8 E31.66649
G0 F9000 X172.357 Y128.8
G1 F1800 X156.2 Y112.642 E31.95232
G0 F9000 X156.2 Y113.208
G1 F1800 X171.792 Y128.8 E32.22815
G0 F9000 X171.226 Y128.8
G1 F1800 X156.2 Y113.773 E32.49398
G0 F9000 X156.2 Y114.339
G1 F1800 X170.66 Y128.8 E32.74979
G0 F9000 X170.095 Y128.8
G1 F1800 X156.2 Y114.905 E32.9956
G0 F9000 X156.2 Y115.471
G1 F1800 X169.529 Y128.8 E33.23139
G0 F9000 X168.963 Y128.8
G1 F1800 X156.2 Y116.036 E33.45719
G0 F9000 X156.2 Y116.602
G1 F1800 X168.397 Y128.8 E33.67296
G0 F9000 X167.832 Y128.8
G1 F1800 X156.2 Y117.168 E33.87874
G0 F9000 X156.2 Y117.733
G1 F1800 X167.266 Y128.8 E34.07451
G0 F9000 X166.7 Y128.8
G1 F1800 X156.2 Y118.299 E34.26027
G0 F9000 X156.2 Y118.865
G1 F1800 X166.135 Y128.8 E34.43602
G0 F9000 X165.569 Y128.8
G1 F1800 X156.2 Y119.43 E34.60177
G0 F9000 X156.2 Y119.996
G1 F1800 X165.003 Y128.8 E34.75751
G0 F9000 X164.438 Y128.8
G1 F1800 X156.2 Y120.562 E34.90325
G0 F9000 X156.2 Y121.127
G1 F1800 X163.872 Y128.8 E35.03897
G0 F9000 X163.306 Y128.8
G1 F1800 X156.2 Y121.693 E35.16469
G0 F9000 X156.2 Y122.259
G1 F1800 X162.741 Y128.8 E35.2804
G0 F9000 X162.175 Y128.8
G1 F1800 X156.2 Y122.824 E35.38611
G0 F9000 X156.2 Y123.39
G1 F1800 X161.609 Y128.8 E35.48181
G0 F9000 X161.044 Y128.8
G1 F1800 X156.2 Y123.956 E35.5675
G0 F9000 X156.2 Y124.522
G1 F1800 X160.478 Y128.8 E35.64318
G0 F9000 X159.912 Y128.8
G1 F1800 X156.2 Y125.087 E35.70886
G0 F9000 X156.2 Y125.653
G1 F1800 X159.347 Y128.8 E35.76453
G0 F9000 X158.781 Y128.8
G1 F1800 X156.2 Y126.219 E35.81019
G0 F9000 X156.2 Y126.784
G1 F1800 X158.215 Y128.8 E35.84584
G0 F9000 X157.649 Y128.8
G1 F1800 X156.2 Y127.35 E35.87149
G0 F9000 X156.2 Y127.916
G1 F1800 X157.084 Y128.8 E35.88712
G0 F9000 X156.518 Y128.8
G1 F1800 X156.2 Y128.481 E35.89276
G1 F2700 E29.39276
;MESH:NONMESH
G0 F600 X156.2 Y128.481 Z0.4
G0 F9000 X156.2 Y132.96
G0 X174.8 Y132.96
G0 X174.8 Y129.8
;TIME_ELAPSED:105.476455
;LAYER:1
M205 X50 Y50
;TYPE:WALL-OUTER
;MESH:Terrific Lappi-Luulia.stl
G1 F2700 E35.89276
G1 F1800 X174.8 Y110.2 E36.13855
G1 X155.2 Y110.2 E36.38434
G1 X155.2 Y129.8 E36.63013
G1 X174.8 Y129.8 E36.87592
M204 S3500
G0 F9000 X174.8 Y129
